icon/lg/jetbrains.svg

<?xml version="1.0" encoding="UTF-8"?>
<svg viewBox="0 0 256 257" version="1.1" xmlns="http://www.w3.org/2000/svg" preserveAspectRatio="xMidYMid" height="1em" width="1em">
  <defs>
    <linearGradient x1="25.1768046%" y1="43.3091462%" x2="99.1720575%" y2="67.4338046%" id="jetbrainsLinearGradient-1">
      <stop stop-color="#FE2857" offset="21%"/>
      <stop stop-color="#293896" offset="100%"/>
    </linearGradient>
    <linearGradient x1="2.27834696%" y1="77.1495472%" x2="90.6955004%" y2="24.0933671%" id="jetbrainsLinearGradient-2">
      <stop stop-color="#FE2857" offset="0%"/>
      <stop stop-color="#FE2857" offset="1%"/>
      <stop stop-color="#FF318C" offset="86%"/>
    </linearGradient>
    <linearGradient x1="6.29867254%" y1="13.9182513%" x2="94.6438712%" y2="87.6937925%" id="jetbrainsLinearGradient-3">
      <stop stop-color="#FF318C" offset="2%"/>
      <stop stop-color="#FE2857" offset="21%"/>
      <stop stop-color="#FDB60D" offset="86%"/>
    </linearGradient>
    <linearGradient x1="91.0869055%" y1="27.7208436%" x2="1.96658946%" y2="68.6215164%" id="jetbrainsLinearGradient-4">
      <stop stop-color="#FDB60D" offset="1%"/>
      <stop stop-color="#FCF84A" offset="86%"/>
    </linearGradient>
  </defs>
  <g>
    <g>
      <path d="M112.662631,117.374211 L42.0528349,57.6077575 C34.1665834,51.0082976 23.0981193,49.7649243 13.9442018,54.450181 C4.79028433,59.1354378 -0.67422973,68.8408981 0.0669357723,79.0974331 C0.808101274,89.353968 7.61124146,98.1729338 17.3436753,101.493411 L17.5998173,101.493411 L18.2657863,101.698324 L107.334879,128.832294 C107.981188,129.065811 108.66267,129.187092 109.349862,129.190893 C112.195364,129.176089 114.685853,127.275658 115.451331,124.535011 C116.216808,121.794364 115.07155,118.878449 112.645555,117.391287 L112.662631,117.374211 Z" fill="url(#jetbrainsLinearGradient-1)"/>
      <path d="M126.819084,18.7083342 C126.860142,11.8597565 123.133799,5.54273474 117.119717,2.26622003 C111.105635,-1.01029467 103.777351,-0.715911985 98.045464,3.03244722 L11.8110093,55.3878607 C3.82067811,60.5958428 -0.614253841,69.8120835 0.301518051,79.3057567 C1.21728994,88.79943 7.33207983,96.998031 16.1705599,100.582684 C25.00904,104.167338 35.1072297,102.544292 42.3772814,96.3705718 L119.68092,33.3767296 L120.295661,32.8644457 C124.430582,29.3229537 126.813075,24.1525703 126.819084,18.7083342 L126.819084,18.7083342 Z" fill="url(#jetbrainsLinearGradient-2)"/>
      <path d="M252.225838,131.530323 L121.388533,5.52556215 C116.563795,0.683561503 109.474882,-1.1274542 102.918926,0.807102986 C96.3629699,2.74166017 91.3928906,8.11109084 89.9697746,14.7967328 C88.5466585,21.4823748 90.8990651,28.4104811 96.0987852,32.8473696 L96.337851,33.0522831 L235.337546,150.16038 C239.082023,153.301341 244.307832,153.986676 248.735594,151.917458 C253.163356,149.848239 255.989992,145.399768 255.982602,140.512367 C255.982602,137.136371 254.629145,133.901286 252.225838,131.530323 Z" fill="url(#jetbrainsLinearGradient-3)"/>
      <path d="M256,140.563595 C256.03427,135.827579 253.399946,131.475383 249.187901,129.309807 C244.975855,127.144231 239.903452,127.534099 236.07182,130.317918 L77.759022,207.672785 C69.1532274,211.99698 63.70047,220.7831 63.645133,230.414058 C63.5906332,240.045016 68.9428375,248.892749 77.4987585,253.314805 C86.0546795,257.736861 96.367984,256.985715 104.192871,251.370601 L250.58653,150.894654 C253.978569,148.549385 256.002093,144.687454 256,140.563595 L256,140.563595 Z" fill="url(#jetbrainsLinearGradient-4)"/>
    </g>
    <polygon fill="#000000" points="75.8464955 76.8867079 178.303273 76.8867079 178.303273 179.343486 75.8464955 179.343486"/>
    <path d="M86.9972081,160.13284 L125.4185,160.13284 L125.4185,166.536389 L86.9972081,166.536389 L86.9972081,160.13284 Z M85.3920519,103.30348 L88.2437656,100.605452 C88.7942375,101.474141 89.7275688,102.02652 90.7539566,102.091075 C91.8468289,102.091075 92.5640264,101.322649 92.5640264,99.8370261 L92.5640264,89.7279574 L96.9696678,89.7279574 L96.9696678,99.8711784 C97.102829,101.522755 96.5322879,103.153758 95.3986639,104.3622 C94.3189201,105.416715 92.8856502,106.023206 91.3861792,106.069874 L91.0100986,106.069813 C88.9202599,106.153996 86.9241408,105.236588 85.6269391,103.61559 L85.3920519,103.30348 Z M98.9504989,89.7279574 L111.808824,89.7279574 L111.808824,93.4676298 L103.27076,93.4676298 L103.27076,95.9095163 L110.937942,95.9095163 L110.937942,99.3247423 L103.339064,99.3247423 L103.339064,101.869086 L111.877129,101.869086 L111.877129,105.625834 L98.8992705,105.625834 L98.9504989,89.7279574 Z M118.075764,93.6042388 L113.294448,93.6042388 L113.294448,89.7279574 L127.31395,89.7279574 L127.31395,93.6042388 L122.515558,93.6042388 L122.515558,105.711215 L118.075764,105.711215 L118.075764,93.6042388 Z M87.1679694,112.029383 L94.7156187,112.029383 C96.2983735,111.89921 97.8671392,112.409828 99.0700318,113.446701 C99.7559089,114.134147 100.132043,115.0714 100.111676,116.042273 C100.137884,117.640042 99.1414409,119.076294 97.6356369,119.611184 C99.5125338,119.955225 100.85988,121.614056 100.811797,123.521618 C100.811797,126.407484 98.574824,128.115097 94.749771,128.115097 L87.1679694,128.115097 L87.1679694,112.029383 Z M95.7060342,116.964384 C95.7060342,116.076425 94.9888368,115.598294 93.6910509,115.598294 L91.4882302,115.598294 L91.4882302,118.398779 L93.6227464,118.398779 C94.9546845,118.398779 95.7401865,117.937724 95.7401865,117.015613 L95.7060342,116.964384 Z M94.1691826,121.506635 L91.4882302,121.506635 L91.4882302,124.460805 L94.2545632,124.460805 C95.6206536,124.460805 96.3720033,123.931445 96.3720033,122.992258 C96.3401278,122.147559 95.772745,121.585488 94.4893688,121.5143 L94.1691826,121.506635 Z M111.347769,128.115097 L108.12038,123.265476 L106.634757,123.265476 L106.634757,128.115097 L102.194963,128.115097 L102.229116,112.029383 L109.31571,112.029383 C111.210776,111.875054 113.088123,112.490578 114.523929,113.736996 C115.412255,114.64457 115.917741,115.853428 115.945572,117.114543 L115.941248,117.459592 C116.004326,119.638178 114.68206,121.618152 112.645555,122.394593 L115.765364,127.0615 L122.105731,111.90985 L126.374763,111.90985 L133.205215,128.029716 L128.440975,128.029716 L127.296874,125.14385 L121.098239,125.14385 L119.954138,128.115097 L111.347769,128.115097 Z M124.206095,117.169298 L122.396025,121.694472 L125.999088,121.694472 L124.206095,117.169298 Z M109.042491,115.871512 L106.668909,115.871512 L106.668909,119.747793 L109.059568,119.713641 C110.545191,119.713641 111.450226,118.979367 111.450226,117.801115 C111.450226,116.520405 110.511039,115.871512 109.042491,115.871512 Z M133.905336,111.978154 L138.34513,111.978154 L138.34513,127.978488 L133.905336,127.978488 L133.905336,111.978154 Z M139.984438,111.978154 L144.151014,111.978154 L149.90567,120.516219 L149.90567,111.978154 L154.294235,111.978154 L154.294235,127.978488 L150.417954,127.978488 L144.39008,119.201357 L144.39008,127.978488 L139.984438,127.978488 L139.984438,111.978154 Z M155.028509,125.604906 L157.487471,122.650735 C158.927696,123.854822 160.733605,124.535048 162.61031,124.580338 C163.822715,124.580338 164.454532,124.153435 164.454532,123.47039 C164.454532,122.954511 164.176395,122.633328 163.14875,122.295067 L162.661068,122.148435 C162.571682,122.123616 162.478128,122.098556 162.380234,122.073177 L161.739428,121.916462 L161.739428,121.916462 L161.389065,121.834624 L161.389065,121.834624 L160.7073,121.665823 L160.7073,121.665823 L160.053782,121.48652 C157.500953,120.742432 155.711554,119.640626 155.711554,116.913156 C155.711554,113.941909 158.06806,111.790317 161.910189,111.790317 C164.285183,111.701326 166.614747,112.457678 168.484499,113.924833 L166.349983,116.964384 C165.058255,115.988337 163.494409,115.4392 161.876037,115.39338 C160.80024,115.39338 160.27088,115.820283 160.27088,116.417948 C160.27088,116.958992 160.56756,117.277525 161.618627,117.605818 L162.116606,117.74779 C162.207745,117.771777 162.303067,117.795983 162.402738,117.820494 L163.05429,117.971876 C166.725657,118.774454 168.996783,119.969783 168.996783,122.958106 C168.996783,126.110928 166.587322,127.955302 162.92526,128.074757 L162.542006,128.080945 C159.989865,128.18961 157.482622,127.422716 155.432348,125.91606 L155.028509,125.604906 Z" fill="#FFFFFF"/>
  </g>
</svg>

<svg width="256" height="257" xmlns="http://www.w3.org/2000/svg" preserveAspectRatio="xMidYMid"><defs><linearGradient x1="25.177%" y1="43.309%" x2="99.172%" y2="67.434%" id="a"><stop stop-color="#FE2857" offset="21%"/><stop stop-color="#293896" offset="100%"/></linearGradient><linearGradient x1="2.278%" y1="77.15%" x2="90.696%" y2="24.093%" id="b"><stop stop-color="#FE2857" offset="0%"/><stop stop-color="#FE2857" offset="1%"/><stop stop-color="#FF318C" offset="86%"/></linearGradient><linearGradient x1="6.299%" y1="13.918%" x2="94.644%" y2="87.694%" id="c"><stop stop-color="#FF318C" offset="2%"/><stop stop-color="#FE2857" offset="21%"/><stop stop-color="#FDB60D" offset="86%"/></linearGradient><linearGradient x1="91.087%" y1="27.721%" x2="1.967%" y2="68.622%" id="d"><stop stop-color="#FDB60D" offset="1%"/><stop stop-color="#FCF84A" offset="86%"/></linearGradient></defs><path d="m112.663 117.374-70.61-59.766a25.614 25.614 0 1 0-24.71 43.885h.257l.666.205 89.069 27.134a6.028 6.028 0 0 0 2.015.359 6.37 6.37 0 0 0 3.296-11.8l.017-.017Z" fill="url(#a)"/><path d="M126.82 18.708A18.597 18.597 0 0 0 98.044 3.032L11.811 55.388A25.614 25.614 0 1 0 42.377 96.37l77.304-62.994.615-.513a18.666 18.666 0 0 0 6.523-14.156Z" fill="url(#b)"/><path d="M252.226 131.53 121.389 5.526a18.63 18.63 0 1 0-25.29 27.321l.239.205 139 117.108a12.568 12.568 0 0 0 20.645-9.648c0-3.376-1.354-6.61-3.757-8.982Z" fill="url(#c)"/><path d="M256 140.564a12.552 12.552 0 0 0-19.928-10.246L77.759 207.673a25.615 25.615 0 1 0 26.434 43.698l146.394-100.476A12.552 12.552 0 0 0 256 140.564Z" fill="url(#d)"/><path d="M75.846 76.887h102.457v102.456H75.846z"/><path d="M86.997 160.133h38.421v6.403h-38.42v-6.403Zm-1.605-56.83 2.852-2.698a3.21 3.21 0 0 0 2.51 1.486c1.093 0 1.81-.768 1.81-2.254V89.728h4.406v10.143a5.874 5.874 0 0 1-1.571 4.491 6.01 6.01 0 0 1-4.013 1.708h-.376a6.557 6.557 0 0 1-5.383-2.454l-.235-.313ZM98.95 89.728h12.859v3.74h-8.538v2.442h7.667v3.415h-7.599v2.544h8.538v3.757H98.9l.051-15.898Zm19.126 3.876h-4.782v-3.876h14.02v3.876h-4.798v12.107h-4.44V93.604ZM87.168 112.03h7.548a5.925 5.925 0 0 1 4.354 1.418 3.569 3.569 0 0 1 1.042 2.595 3.723 3.723 0 0 1-2.476 3.57 3.876 3.876 0 0 1 3.176 3.91c0 2.885-2.237 4.593-6.062 4.593h-7.582V112.03Zm8.538 4.935c0-.888-.717-1.366-2.015-1.366h-2.203v2.8h2.135c1.332 0 2.117-.46 2.117-1.382l-.034-.052Zm-1.537 4.543h-2.68v2.954h2.766c1.366 0 2.117-.53 2.117-1.469-.032-.844-.6-1.407-1.883-1.478l-.32-.007Zm17.179 6.608-3.228-4.85h-1.485v4.85h-4.44l.034-16.086h7.087a7.07 7.07 0 0 1 5.208 1.708 4.986 4.986 0 0 1 1.422 3.378l-.005.345a5.123 5.123 0 0 1-3.295 4.935l3.12 4.666 6.34-15.151h4.269l6.83 16.12h-4.764l-1.144-2.886h-6.199l-1.144 2.971h-8.606Zm12.858-10.946-1.81 4.525h3.603l-1.793-4.525Zm-15.164-1.297h-2.373v3.876l2.39-.034c1.486 0 2.391-.735 2.391-1.913 0-1.28-.939-1.93-2.408-1.93Zm24.863-3.894h4.44v16h-4.44v-16Zm6.08 0h4.166l5.755 8.538v-8.538h4.388v16h-3.876l-6.028-8.777v8.777h-4.406v-16Zm15.044 13.627 2.458-2.954a8.299 8.299 0 0 0 5.123 1.93c1.213 0 1.845-.428 1.845-1.11 0-.516-.279-.838-1.306-1.176l-.488-.147-.28-.075-.642-.157-.35-.081-.682-.17-.653-.178c-2.553-.745-4.342-1.846-4.342-4.574 0-2.971 2.356-5.123 6.198-5.123a10.04 10.04 0 0 1 6.574 2.135l-2.134 3.04a7.787 7.787 0 0 0-4.474-1.572c-1.076 0-1.605.427-1.605 1.025 0 .541.297.86 1.348 1.188l.498.142c.09.024.186.048.286.072l.651.152c3.672.802 5.943 1.998 5.943 4.986 0 3.153-2.41 4.997-6.072 5.117l-.383.006a11.202 11.202 0 0 1-7.11-2.165l-.403-.311Z" fill="#FFF"/></svg>
